docs/img/services/design.svg

<svg width="48" height="48" viewBox="0 0 48 48" fill="none" xmlns="http://www.w3.org/2000/svg">
<path d="M6.21875 38.0625C6.21875 36.0124 7.88742 34.3438 9.9375 34.3438C11.9876 34.3438 13.6562 36.0124 13.6562 38.0625C13.6562 40.1126 11.9876 41.7812 9.9375 41.7812C7.88742 41.7812 6.21875 40.1126 6.21875 38.0625ZM8.03125 38.0625C8.03125 39.114 8.88595 39.9688 9.9375 39.9688C10.989 39.9688 11.8438 39.114 11.8438 38.0625C11.8438 37.011 10.989 36.1562 9.9375 36.1562C8.88595 36.1562 8.03125 37.011 8.03125 38.0625Z" stroke="black" stroke-opacity="0.2"/>
<path d="M45.4619 28.569C46.4213 27.2708 46.598 25.4603 45.7256 23.9496L40.1035 14.118C39.131 12.4335 37.0801 11.6648 35.2507 12.1538C35.6402 10.4029 34.8759 8.52441 33.2423 7.58119L23.5 1.95656C22.1087 1.15313 20.4451 1.23544 19.1657 2.02678C18.4242 0.812437 17.0865 0 15.5625 0H4.21875C1.89253 0 0 1.89253 0 4.21875C0 5.19422 0 42.6583 0 43.7812C0 46.1075 1.89253 48 4.21875 48C5.31122 48 38.4345 48 43.7812 48C46.1075 48 48 46.1075 48 43.7812V32.4375C48 30.7085 46.954 29.2197 45.4619 28.569ZM16.9688 43.7812C16.9688 44.5567 16.3379 45.1875 15.5625 45.1875H4.21875C3.44334 45.1875 2.8125 44.5567 2.8125 43.7812C2.8125 43.1388 2.8125 31.6483 2.8125 31.0312H16.9688V43.7812ZM16.9688 28.2188H2.8125V16.875H16.9688V28.2188ZM16.9688 14.0625H2.8125V4.21875C2.8125 3.44334 3.44334 2.8125 4.21875 2.8125H15.5625C16.3379 2.8125 16.9688 3.44334 16.9688 4.21875V14.0625ZM19.7812 5.5845L20.1723 4.90716C20.5602 4.23544 21.4222 4.00444 22.0938 4.39228L31.836 10.0169C32.5077 10.4048 32.7386 11.2667 32.3498 11.9403L30.7249 14.7647C30.6842 14.8248 30.6476 14.8872 30.6169 14.9524L19.7812 33.787V5.5845ZM19.7812 39.427L32.9271 16.5767L35.6452 15.0074C36.3342 14.6096 37.2793 14.8512 37.665 15.5192L43.2871 25.3507C43.676 26.0242 43.4492 26.8877 42.7688 27.2805C41.7645 27.8618 20.7702 40.0161 19.7812 40.5886V39.427ZM45.1875 43.7812C45.1875 44.5567 44.5567 45.1875 43.7812 45.1875H19.5394C19.6893 44.7647 19.7734 44.3113 19.7798 43.8393L41.9034 31.0312H43.7812C44.5567 31.0312 45.1875 31.6621 45.1875 32.4375V43.7812Z" fill="#C4C4C4"/>
</svg>

<svg width="48" height="48" fill="none" xmlns="http://www.w3.org/2000/svg"><path d="M6.219 38.063a3.723 3.723 0 013.718-3.72 3.723 3.723 0 013.72 3.72 3.723 3.723 0 01-3.72 3.718 3.723 3.723 0 01-3.718-3.718zm1.812 0c0 1.051.855 1.906 1.906 1.906a1.908 1.908 0 001.907-1.907 1.908 1.908 0 00-1.906-1.906 1.908 1.908 0 00-1.907 1.907z" stroke="#000" stroke-opacity=".2"/><path d="M45.462 28.569a4.22 4.22 0 00.264-4.62l-5.623-9.831c-.972-1.684-3.023-2.453-4.852-1.964a4.227 4.227 0 00-2.009-4.573L23.5 1.957a4.222 4.222 0 00-4.334.07A4.22 4.22 0 0015.562 0H4.22A4.224 4.224 0 000 4.219V43.78A4.224 4.224 0 004.219 48H43.78A4.224 4.224 0 0048 43.781V32.438a4.224 4.224 0 00-2.538-3.869zM16.969 43.781c0 .776-.631 1.407-1.407 1.407H4.22a1.408 1.408 0 01-1.407-1.407v-12.75H16.97v12.75zm0-15.562H2.812V16.875H16.97v11.344zm0-14.157H2.812V4.22c0-.776.631-1.407 1.407-1.407h11.343c.776 0 1.407.631 1.407 1.407v9.843zm2.812-8.477l.391-.678a1.408 1.408 0 011.922-.515l9.742 5.625c.672.388.903 1.25.514 1.923l-1.625 2.825c-.04.06-.077.122-.108.187L19.78 33.787V5.584zm0 33.842l13.146-22.85 2.718-1.57c.69-.397 1.634-.156 2.02.512l5.622 9.832a1.411 1.411 0 01-.518 1.93c-1.005.58-21.999 12.735-22.988 13.308v-1.162zm25.407 4.354c0 .776-.631 1.407-1.407 1.407H19.54a4.19 4.19 0 00.24-1.349l22.124-12.808h1.878c.776 0 1.407.631 1.407 1.407V43.78z" fill="#C4C4C4"/></svg>
